lib/svgs/th.svg

<svg xmlns="http://www.w3.org/2000/svg" viewBox="0 0 20 20">
    <path fill="#000" fill-rule="evenodd" d="M6.667,10.3333 L4,10.3333 C2.9,10.3333 2,11.2333 2,12.3333 L2,15.0003 C2,16.1003 2.9,17.0003 4,17.0003 L6.667,17.0003 C7.767,17.0003 8.667,16.1003 8.667,15.0003 L8.667,12.3333 C8.667,11.2333 7.767,10.3333 6.667,10.3333 L6.667,10.3333 Z M6.667,11.5333 C7.101,11.5333 7.467,11.8993 7.467,12.3333 L7.467,15.0003 C7.467,15.4333 7.101,15.8003 6.667,15.8003 L4,15.8003 C3.567,15.8003 3.2,15.4333 3.2,15.0003 L3.2,12.3333 C3.2,11.8993 3.567,11.5333 4,11.5333 L6.667,11.5333 L6.667,11.5333 Z M15.0043,10.3333 L12.3373,10.3333 C11.2373,10.3333 10.3373,11.2333 10.3373,12.3333 L10.3373,15.0003 C10.3373,16.1003 11.2373,17.0003 12.3373,17.0003 L15.0043,17.0003 C16.1043,17.0003 17.0043,16.1003 17.0043,15.0003 L17.0043,12.3333 C17.0043,11.2333 16.1043,10.3333 15.0043,10.3333 L15.0043,10.3333 Z M15.0043,11.5333 C15.4383,11.5333 15.8043,11.8993 15.8043,12.3333 L15.8043,15.0003 C15.8043,15.4333 15.4383,15.8003 15.0043,15.8003 L12.3373,15.8003 C11.9043,15.8003 11.5373,15.4333 11.5373,15.0003 L11.5373,12.3333 C11.5373,11.8993 11.9043,11.5333 12.3373,11.5333 L15.0043,11.5333 L15.0043,11.5333 Z M6.6675,2 L4.0005,2 C2.9005,2 2.0005,2.9 2.0005,4 L2.0005,6.667 C2.0005,7.767 2.9005,8.667 4.0005,8.667 L6.6675,8.667 C7.7675,8.667 8.6675,7.767 8.6675,6.667 L8.6675,4 C8.6675,2.9 7.7675,2 6.6675,2 L6.6675,2 Z M6.6675,3.2 C7.1015,3.2 7.4675,3.566 7.4675,4 L7.4675,6.667 C7.4675,7.1 7.1015,7.467 6.6675,7.467 L4.0005,7.467 C3.5675,7.467 3.2005,7.1 3.2005,6.667 L3.2005,4 C3.2005,3.566 3.5675,3.2 4.0005,3.2 L6.6675,3.2 L6.6675,3.2 Z M15.0049,2 L12.3379,2 C11.2379,2 10.3379,2.9 10.3379,4 L10.3379,6.667 C10.3379,7.767 11.2379,8.667 12.3379,8.667 L15.0049,8.667 C16.1049,8.667 17.0049,7.767 17.0049,6.667 L17.0049,4 C17.0049,2.9 16.1049,2 15.0049,2 L15.0049,2 Z M15.0049,3.2 C15.4389,3.2 15.8049,3.566 15.8049,4 L15.8049,6.667 C15.8049,7.1 15.4389,7.467 15.0049,7.467 L12.3379,7.467 C11.9049,7.467 11.5379,7.1 11.5379,6.667 L11.5379,4 C11.5379,3.566 11.9049,3.2 12.3379,3.2 L15.0049,3.2 L15.0049,3.2 Z"/>
</svg>

<svg xmlns="http://www.w3.org/2000/svg" viewBox="0 0 20 20">
    <path fill="#000" fill-rule="evenodd" d="M6.667 10.333H4c-1.1 0-2 .9-2 2V15c0 1.1.9 2 2 2h2.667c1.1 0 2-.9 2-2v-2.667c0-1.1-.9-2-2-2m0 1.2c.434 0 .8.366.8.8V15a.81.81 0 0 1-.8.8H4a.812.812 0 0 1-.8-.8v-2.667c0-.434.367-.8.8-.8h2.667m8.337-1.2h-2.667c-1.1 0-2 .9-2 2V15c0 1.1.9 2 2 2h2.667c1.1 0 2-.9 2-2v-2.667c0-1.1-.9-2-2-2m0 1.2c.434 0 .8.366.8.8V15a.81.81 0 0 1-.8.8h-2.667a.812.812 0 0 1-.8-.8v-2.667c0-.434.367-.8.8-.8h2.667M6.668 2H4c-1.1 0-2 .9-2 2v2.667c0 1.1.9 2 2 2h2.668c1.1 0 2-.9 2-2V4c0-1.1-.9-2-2-2m0 1.2c.433 0 .8.366.8.8v2.667a.81.81 0 0 1-.8.8H4a.812.812 0 0 1-.8-.8V4c0-.434.367-.8.8-.8h2.668M15.005 2h-2.667c-1.1 0-2 .9-2 2v2.667c0 1.1.9 2 2 2h2.667c1.1 0 2-.9 2-2V4c0-1.1-.9-2-2-2m0 1.2c.434 0 .8.366.8.8v2.667a.81.81 0 0 1-.8.8h-2.667a.812.812 0 0 1-.8-.8V4c0-.434.367-.8.8-.8h2.667"/>
</svg>
